!!!OTL: Der Abendgang.
!!!OTL-incipit: O das jch kunt von hertzen
!!!ARE: Europa, Mitteleuropa, Deutschland
!!!YOR: 1, S. 183
!!    1581 gedruckt in Prag
!!!SCT: Q0019A
!!!YEM: Copyright 1995, estate of Helmut Schaffrath.
**kern	**text
*ICvox	*
!! Irregular meter.
*MX	*
*k[]	*
*a:	*
!LO:TX:a:t=Frei im Takt erzählend.	!
{2a	1._O
=1:	=1:
2cc	das
4cc	jch
2dd	künt
4dd	von
=2:	=2:
2ee	her-
2ee}	-tʒen
{2ee	ſin-
=3:	=3:
2gg	-gen
4gg	ein
2ff	ta-
4dd	-ge-
=4:	=4:
*lig	*
2ee	-weyß
2dd	.
*Xlig	*
2r}	.
{2dd	von
=5:	=5:
2ee	lie-
4ee	-ben
2ee	bit-
4gg	-tern
=6:	=6:
2ff	ſchmertʒen!
2ee	.
2r}	.
{2ee	Nu
=7:	=7:
2dd	mer-
4cc	-cket
2ee	auff
4cc	mit
=8:	=8:
*lig	*
2b	fleyß,
2a	.
*Xlig	*
2r}	.
{2ee	wie
=9:	=9:
2dd	es
4dd	eins
2cc	Kü-
4a	-nigs
=10:	=10:
4b	toch-
4cc	-ter
2dd}	gieng
{2dd	mit
=11:	=11:
2dd	ei-
4dd	-nem
2dd	jun-
4ee	-gen
=12:	=12:
2ff	Gra-
2ee	-fen,
2r}	.
{2ee	nu
=13:	=13:
2dd	hört
4cc	hübſch
2ee	wun-
4cc	-der-
=14:	=14:
*lig	*
2b	-ding!
2a}	.
*Xlig	*
==	==
!!!AGN: Ballade, Liebe, Trennung, Tod; geistlich
!! Kleinere Melodievarianten aus anderen Quellen abgedruckt.
!!    Melodie: geistliche Kontrafaktur.
!!!ONB: ESAC (Essen Associative Code) Database: BALLADE
!!!AMT: irregular
!!!AIN: vox
!!!EED: Helmut Schaffrath
!!!EEV: 1.0
!!!source: Deutsche Volkslieder mit ihren Melodien. Balladen. Herausgegeben vom Deutschen Volksliedarchiv. Erster Band Balladen. Berlin und Leipzig 1935.
!!!page: 183
!!!ENC: Anna Maria Matuszewska
!!!EEV: 2025/02/14
*-	*-
